X:1
T: Wha'll be King but Charlie?
C:
R:Jig
K:D
M:6/8
L:1/16
|: F2 |\
d4c2 d4e2 | f4g2 f4e2 | d2d2c2 d4e2 | f6 F4F2 |\
d4e2 f4b2 | a4f2 e4f2 | d4B2 B2A2F2 | B6 B4c2 ||
d4B2 B2A2F2 | d4B2 B2A2F2 | d4B2 B2A2F2 | A6 A4c2 |\
d4e2 f4b2 | a4f2 e4f2 | d4B2 B2A2F2 | B6 B4 :| 
